build/images/common/lamp.svg

<svg width="17" height="25" viewBox="0 0 17 25" fill="none" xmlns="http://www.w3.org/2000/svg">
<path fill-rule="evenodd" clip-rule="evenodd" d="M6.6323 0.114808C6.59418 0.610324 6.82288 1.14396 6.70853 1.48701C6.59418 1.48701 6.44171 1.44889 6.36548 1.37266C6.36548 1.37266 6.36548 1.25831 6.28925 1.14396C6.1749 0.99149 6.1749 0.915257 6.13678 0.610324C6.09866 0.457858 6.06055 0.267275 6.06055 0.229158C6.06055 0.0385751 6.4036 -0.113891 6.6323 0.114808Z" fill="#1A1A1A"/>
<path fill-rule="evenodd" clip-rule="evenodd" d="M10.0247 0.495997C9.91031 0.877163 9.49103 1.06775 9.49103 1.52514C9.30045 1.63949 9.10986 1.67761 8.9574 1.56326C8.69058 1.29645 9.26233 0.877163 9.37668 0.648463C9.60538 0.724697 9.75785 0.267297 10.0247 0.495997Z" fill="#1A1A1A"/>
<path fill-rule="evenodd" clip-rule="evenodd" d="M4.11658 1.63948C4.00223 1.6776 3.926 1.71571 3.77353 1.6776C3.73542 1.4489 3.43048 1.37266 3.50672 1.14396C3.35425 1.06773 3.2399 0.915265 3.31614 0.724682C3.54483 0.648449 3.73542 0.457866 3.88788 0.686565C3.96412 1.02961 4.1547 1.29643 4.11658 1.63948Z" fill="#1A1A1A"/>
<path fill-rule="evenodd" clip-rule="evenodd" d="M12.769 0.991491C12.8072 1.22019 12.5785 1.18207 12.5785 1.33454C12.3879 1.41077 12.0448 1.67759 11.8543 1.94441C11.7399 2.09687 11.7399 2.28746 11.5874 2.32557C11.435 2.36369 11.2825 2.21122 11.1682 2.13499C11.435 1.52512 11.9305 0.915258 12.769 0.991491Z" fill="#1A1A1A"/>
<path fill-rule="evenodd" clip-rule="evenodd" d="M2.40134 3.35472C1.94394 3.46907 1.48654 3.24037 1.21973 2.93544C1.29596 2.74485 1.48654 2.6305 1.79148 2.66862C1.94394 2.93544 2.36322 2.93544 2.40134 3.35472Z" fill="#1A1A1A"/>
<path fill-rule="evenodd" clip-rule="evenodd" d="M14.6367 2.97357C14.6367 3.16415 14.5224 3.24038 14.3318 3.31662C13.9888 3.46908 13.8744 3.85025 13.417 3.65967C13.3408 3.54532 13.3027 3.43097 13.3789 3.2785C13.3789 3.24038 13.8744 2.93545 13.9888 2.89733C14.2556 2.8211 14.4843 2.8211 14.6367 2.97357Z" fill="#1A1A1A"/>
<path fill-rule="evenodd" clip-rule="evenodd" d="M16.2377 4.99371C15.9709 5.29864 15.1704 5.64169 14.8274 5.22241C14.8655 5.06994 14.9417 4.99371 14.9799 4.87936C15.4373 4.87936 16.0471 4.53631 16.2377 4.99371Z" fill="#1A1A1A"/>
<path fill-rule="evenodd" clip-rule="evenodd" d="M5.41257 4.91749C5.48881 5.03184 5.52692 5.18431 5.60316 5.26054C5.56504 5.37489 5.45069 5.45113 5.37446 5.52736C5.06952 5.52736 4.84082 5.41301 4.91706 5.03184C5.10764 5.03184 5.18387 4.87938 5.41257 4.91749Z" fill="#1A1A1A"/>
<path fill-rule="evenodd" clip-rule="evenodd" d="M1.4484 5.56548C1.4484 5.64172 1.4484 5.71795 1.4484 5.79418C1.14347 6.02288 0.457368 5.8323 0.152436 5.64172C0.152436 5.52737 0.152435 5.52737 0.114319 5.45113C0.419252 4.99374 1.06723 5.3749 1.4484 5.56548Z" fill="#1A1A1A"/>
<path fill-rule="evenodd" clip-rule="evenodd" d="M4.42151 6.21346C4.42151 6.48027 4.3834 6.67086 4.1547 6.74709C3.62107 7.58565 3.62107 8.91973 4.19281 9.64395C4.30716 9.7583 4.57398 9.91077 4.30716 10.1013C4.19281 10.1776 3.926 10.1395 3.81165 10.0632C3.39237 9.7583 3.2399 8.76727 3.12555 8.30987C3.2399 7.50942 3.50672 6.78521 3.84976 6.13722C4.07846 6.02287 4.30716 6.09911 4.42151 6.21346Z" fill="#1A1A1A"/>
<path fill-rule="evenodd" clip-rule="evenodd" d="M16.7332 7.31885C16.7332 7.4332 16.6189 7.47132 16.6189 7.58567C16.2377 7.62378 15.7422 7.6619 15.4754 7.4332C15.3229 6.7471 16.4664 7.05203 16.7332 7.31885Z" fill="#1A1A1A"/>
<path fill-rule="evenodd" clip-rule="evenodd" d="M1.1435 8.30988C1.18161 8.38611 1.1435 8.46234 1.1435 8.57669C0.876682 8.80539 0.11435 9.30091 0 8.61481C0.304933 8.38611 0.686099 8.38611 1.1435 8.30988Z" fill="#1A1A1A"/>
<path fill-rule="evenodd" clip-rule="evenodd" d="M17 9.33904C16.8094 9.64397 16.009 9.68209 15.7041 9.49151C15.6659 9.37716 15.6659 9.26281 15.7041 9.14846C15.9709 8.91976 16.8857 8.91976 17 9.33904Z" fill="#1A1A1A"/>
<path fill-rule="evenodd" clip-rule="evenodd" d="M1.41032 11.3211C1.41032 11.3973 1.44844 11.4736 1.48656 11.5498C1.18162 11.7785 0.99104 12.3121 0.419291 12.1215C0.228708 11.8928 0.457408 11.7404 0.609874 11.626C0.99104 11.626 1.02916 11.2067 1.41032 11.3211Z" fill="#1A1A1A"/>
<path fill-rule="evenodd" clip-rule="evenodd" d="M17 11.8547C16.8475 12.1596 16.5045 12.1215 16.0852 12.0834C15.9327 11.9691 15.8565 11.8547 15.8946 11.7022C15.9708 11.4354 16.1995 11.5117 16.5045 11.5498C16.695 11.626 16.9619 11.5498 17 11.8547Z" fill="#1A1A1A"/>
<path fill-rule="evenodd" clip-rule="evenodd" d="M1.94394 12.922C2.17264 13.3794 1.33408 13.8749 1.06726 13.3794C1.18161 13.0363 1.60089 12.922 1.94394 12.922Z" fill="#1A1A1A"/>
<path fill-rule="evenodd" clip-rule="evenodd" d="M15.9327 14.7516C15.6659 14.9422 15.2466 14.7897 15.0942 14.561C15.0561 14.4467 15.2085 14.4085 15.0942 14.3704C15.361 13.9893 16.009 14.2561 15.9327 14.7516Z" fill="#1A1A1A"/>
<path fill-rule="evenodd" clip-rule="evenodd" d="M3.23991 15.3996C3.12556 15.6664 2.78251 15.7426 2.70627 16.0857C2.47757 16.2 2.09641 16.2 2.05829 15.9713C1.94394 15.552 2.89686 15.0946 3.23991 15.3996Z" fill="#1A1A1A"/>
<path fill-rule="evenodd" clip-rule="evenodd" d="M14.9036 16.2762C14.7892 16.6955 14.1031 16.4668 14.065 16.1619C14.065 15.7045 14.9036 15.8188 14.9036 16.2762Z" fill="#1A1A1A"/>
<path fill-rule="evenodd" clip-rule="evenodd" d="M4.53589 16.3144C4.68836 16.7718 4.15473 16.8861 3.92603 17.1529C3.77356 17.0767 3.54486 17.0767 3.46863 16.9623C3.54486 16.4668 4.04038 16.3906 4.53589 16.3144Z" fill="#1A1A1A"/>
<path fill-rule="evenodd" clip-rule="evenodd" d="M13.6838 17.839C13.6076 18.2202 12.4641 18.2202 12.5785 17.6484C12.9215 17.3435 13.417 17.6866 13.6838 17.839Z" fill="#1A1A1A"/>
<path fill-rule="evenodd" clip-rule="evenodd" d="M5.52692 17.6103C5.60315 17.6866 5.64127 17.8009 5.64127 17.9534C5.52692 18.0677 5.37445 18.144 5.29822 18.2964C5.18387 18.2583 4.91705 18.2583 4.76459 18.144C4.76459 17.9915 4.84082 17.9153 4.87894 17.8009C5.14575 17.8009 5.2601 17.5722 5.52692 17.6103Z" fill="#1A1A1A"/>
<path fill-rule="evenodd" clip-rule="evenodd" d="M11.3587 18.6013C12.1211 18.6776 12.4641 19.2112 12.3498 20.0498C12.1973 20.2022 12.0067 20.2785 11.8543 20.3928C12.1592 20.8502 11.7399 21.4982 11.5112 21.8794C11.778 22.2987 11.4731 23.061 11.2825 23.4803C11.1682 23.4803 11.1682 23.4422 11.0538 23.4422C10.9395 23.5184 10.8632 23.6327 10.8251 23.7852C10.5202 23.9758 10.2152 24.1282 9.87219 24.2807C9.07174 24.4332 7.96636 24.4332 7.39461 23.9377C7.31838 23.9377 7.24215 23.9377 7.16591 23.9377C6.97533 23.5565 6.51793 23.2897 6.32735 22.9085C6.25111 22.7561 6.28923 22.6417 6.17488 22.4892C6.213 22.1081 6.02242 21.8413 6.06053 21.4982C5.86995 21.3457 5.90807 21.0408 5.7556 20.8883C5.79372 20.6215 5.79372 20.3547 5.86995 20.0498C5.7556 19.8973 5.60313 19.783 5.45067 19.6686C5.45067 19.5543 5.41255 19.135 5.41255 18.9444C5.56502 18.6776 5.86995 18.6395 6.13677 18.5251C6.213 17.6103 5.90807 16.8861 5.60313 16.2C5.45067 15.8569 5.26008 15.4758 5.10762 15.209C4.65022 14.3704 3.88789 13.7987 3.43049 13.0363C3.0112 12.5027 2.55381 11.8928 2.28699 11.1686C2.24887 11.0543 2.17264 10.9399 2.13452 10.8256C1.90582 10.1395 1.82959 9.41524 1.67712 8.69103C1.75336 7.9287 1.71524 7.12825 2.02017 6.44215C2.05829 6.36592 2.13452 6.3278 2.17264 6.28968C2.21076 6.17533 2.21076 6.06099 2.24887 5.94664C2.32511 5.79417 2.43946 5.67982 2.55381 5.52735C2.7825 5.14619 2.93497 4.76502 3.27802 4.46009C3.43049 4.30762 3.6973 4.15516 3.88789 3.96457C4.42152 3.50717 5.10762 3.12601 5.9843 2.89731C6.86098 2.66861 8.08071 2.47803 9.03363 2.51614C9.64349 2.51614 10.5202 2.66861 11.0157 2.93542C12.3879 3.27847 13.3408 4.11704 13.9507 5.413C14.2175 6.02287 14.4843 6.67085 14.6749 7.39507C14.713 7.58565 14.7892 7.81435 14.8273 8.00493C15.0179 9.0722 15.1323 10.2538 15.056 11.3211C15.0179 11.5879 14.9798 11.9691 14.9036 12.3502C14.8655 12.7695 14.8273 13.1888 14.6749 13.57C14.6749 13.6081 14.5986 13.6462 14.5986 13.7224C14.4462 14.3704 14.065 14.9422 13.6457 15.3233C13.2646 15.5139 12.8072 15.8569 12.4641 16.2C12.3498 16.3143 12.3117 16.5049 12.2354 16.6193C12.1973 16.6955 12.083 16.6955 12.0448 16.7717C12.0067 16.848 12.0067 16.9242 11.9686 17.0004C11.8161 17.2291 11.4731 17.6484 11.3969 17.9152C11.2825 18.0677 11.2825 18.3726 11.3587 18.6013ZM11.7018 16.0094C11.8161 15.8951 11.8543 15.7426 11.9305 15.6282C12.3117 15.1709 12.9215 14.9421 13.3789 14.5229C13.9125 14.0274 14.1794 12.7695 14.2937 11.9309C14.5224 10.1776 14.2175 8.46233 13.8744 7.16637C13.722 6.59462 13.6076 6.06098 13.3408 5.6417C13.0359 5.10807 12.7309 4.65067 12.2354 4.23139C11.3206 3.43094 9.83407 3.08789 8.30941 3.08789C7.96636 3.20224 7.47085 3.20224 7.08968 3.24036C6.4417 3.27847 5.67937 3.65964 5.10762 3.85022C4.87892 3.92646 4.76457 4.04081 4.57399 4.15516C4.19282 4.42197 3.81165 4.68879 3.58295 5.06995C3.43049 5.06995 3.43049 5.26054 3.27802 5.26054C2.97309 5.94664 2.47757 6.51838 2.36322 7.35695C2.13452 8.65291 2.47757 10.0632 2.89685 11.1686C3.08744 11.3592 3.20179 11.626 3.31614 11.8928C3.96412 12.922 4.80268 13.7987 5.5269 14.7516C5.83183 15.4377 6.25111 16.1619 6.55605 16.9242C6.6704 17.191 6.78475 17.6103 6.78475 17.9152C6.78475 18.1439 6.63228 18.4489 6.74663 18.6013C6.78475 18.6013 6.86098 18.6013 6.8991 18.6013C7.1278 18.0677 7.08968 17.4578 7.08968 16.8099C7.08968 15.0565 6.51793 13.265 5.94618 11.8928C5.48878 11.6641 5.03138 11.0543 5.22197 10.4825C5.22197 10.3682 5.14573 10.3682 5.18385 10.2538C5.26008 10.1013 5.37443 10.0632 5.56502 10.0251C5.83183 10.1395 5.64125 10.4825 5.71748 10.7493C5.7556 10.9399 5.90807 11.0161 5.94618 11.1686C6.25111 11.0924 6.36546 11.2067 6.4417 11.4735C6.63228 11.4735 6.78475 11.5498 6.86098 11.3973C6.51793 11.0924 6.02242 10.635 6.13677 10.0251C6.17488 9.87264 6.32735 9.79641 6.25111 9.60583C6.4417 9.26278 6.82286 9.11031 7.31838 9.11031C7.73766 9.30089 8.15694 9.56771 8.15694 10.1395C8.15694 10.5206 7.92824 10.8637 7.85201 11.1686C8.11883 11.2067 8.30941 11.1305 8.57623 11.0924C8.42376 10.7874 8.38564 10.4825 8.34753 10.1395C8.42376 10.0251 8.38564 9.79641 8.49999 9.60583C8.53811 9.52959 8.65246 9.45336 8.72869 9.37713C8.76681 9.3009 8.80493 9.18654 8.84304 9.11031C8.95739 8.91973 8.99551 8.88161 9.14798 8.76726C9.45291 8.53856 9.71972 8.69103 10.1009 8.80538C10.139 8.99596 10.2915 9.03408 10.3296 9.22466C10.5583 9.0722 10.7108 8.88161 10.9395 8.69103C11.0538 8.72915 11.2444 8.72915 11.435 8.72915C11.8543 8.99596 12.2354 9.37713 12.0448 9.91076C11.9686 10.1013 11.8924 10.2919 11.8161 10.5206C11.7399 10.7112 11.6637 10.8637 11.5874 11.0161C11.9305 11.3211 12.4641 10.8256 12.6547 11.1686C12.5022 11.2067 12.5022 11.3592 12.3498 11.4354C12.1973 11.5117 11.9686 11.5117 11.778 11.5879C11.9305 11.6641 11.8924 11.8928 11.8924 12.1215C11.778 12.1978 11.6256 12.2359 11.5112 12.3121C11.0919 12.7314 10.787 13.3031 10.5964 13.9511C10.4058 14.5229 10.2152 15.3233 10.2152 15.9332C10.2152 16.543 10.1009 17.4197 10.2534 18.0296C10.3296 18.2964 10.4821 18.487 10.2152 18.6395C10.4058 18.6776 10.5202 18.6395 10.7489 18.6776C10.5583 17.4197 11.2063 16.6574 11.7018 16.0094ZM9.56726 9.03408C9.07174 9.18655 8.84304 10.1776 9.18609 10.635C9.56726 10.33 10.1009 9.45336 9.56726 9.03408ZM11.3969 9.98699C11.435 9.87264 11.5112 9.68206 11.5112 9.56771C11.4731 9.26278 11.13 9.11031 10.9013 9.33901C10.6726 9.56771 10.5583 10.4825 11.0157 10.635C11.1682 10.4063 11.3206 10.1776 11.3969 9.98699ZM6.97533 9.60583C6.6704 10.0251 6.97533 10.6731 7.31838 10.8637C7.73766 10.5206 7.8139 9.41525 6.97533 9.60583ZM9.60538 11.0543C9.75784 11.3592 10.5202 11.3973 10.7108 11.0543C10.4439 10.9399 10.3677 10.5969 10.139 10.4444C9.91031 10.635 9.75784 10.8637 9.60538 11.0543ZM11.2063 11.3973C10.8632 11.6641 10.4821 11.9309 9.87219 11.8166C9.56726 11.7785 9.26233 11.4354 9.03363 11.4354C8.84304 11.4354 8.61434 11.5498 8.38564 11.5879C8.08071 11.626 7.8139 11.626 7.50896 11.5879C7.31838 11.7785 7.05156 11.8547 6.78475 11.9309C6.82286 12.3883 7.1278 12.8457 7.24215 13.3413C7.66143 14.9422 7.89013 16.7717 7.66143 18.4489C8.34753 18.5251 9.03363 18.5251 9.75784 18.5251C9.30044 16.0856 9.64349 13.3794 11.0538 11.7404C11.2444 11.6641 11.435 11.5879 11.5493 11.3973C11.3587 11.3211 11.2444 11.3592 11.2063 11.3973ZM7.24215 20.0498C7.77578 20.0879 8.42376 20.126 9.10986 20.0879C9.68161 20.0879 10.2915 20.2022 10.9395 20.126C11.6637 20.0498 12.083 19.4399 11.2825 19.2493C10.7108 19.135 10.0247 19.2493 9.41479 19.1731C9.33856 19.1731 9.26233 19.0969 9.18609 19.0969C8.88116 19.0587 8.49999 19.0969 8.23318 19.0969C7.47085 19.0969 6.78475 19.135 6.13677 19.2112C6.213 19.7067 6.74663 19.9735 7.24215 20.0498ZM8.30941 21.6126C9.37668 21.6888 10.2534 21.8031 10.9776 21.5744C11.13 21.4601 11.13 21.2314 11.3206 21.1552C11.2825 20.9265 11.5874 20.7359 11.5112 20.6215C11.3206 20.5834 11.3206 20.6978 11.1682 20.6978C9.56726 20.6978 7.77578 20.8121 6.40358 20.4691C6.32735 21.4601 7.43273 21.5363 8.30941 21.6126ZM7.31838 22.1843C7.39461 22.1843 7.47085 22.1843 7.47085 22.1081C7.43273 22.07 7.39461 22.07 7.31838 22.07C7.31838 22.1081 7.31838 22.1462 7.31838 22.1843ZM8.49999 22.6798C8.49999 22.4892 8.53811 22.2224 8.34753 22.1843C8.38564 22.2987 8.42376 22.6036 8.49999 22.6798ZM9.07174 22.4892C9.26233 22.4511 9.37668 22.413 9.56726 22.4511C9.56726 22.3368 9.56726 22.2987 9.60538 22.2605C9.45291 22.2987 8.91928 22.0318 9.07174 22.4892ZM9.94842 23.6327C9.94842 23.5565 9.87219 23.4803 9.91031 23.2897C9.87219 23.2897 9.83407 23.2897 9.83407 23.2516C9.71972 23.404 9.87219 23.5565 9.94842 23.6327ZM9.18609 23.8233C9.22421 23.8233 9.26233 23.8614 9.30044 23.8614C9.33856 23.7852 9.26233 23.6327 9.22421 23.5946C9.18609 23.5946 9.18609 23.709 9.18609 23.8233Z" fill="#1A1A1A"/>
</svg>

<svg width="17" height="25" fill="none" xmlns="http://www.w3.org/2000/svg"><path fill-rule="evenodd" clip-rule="evenodd" d="M6.632.115c-.038.495.19 1.029.077 1.372-.115 0-.267-.038-.344-.114 0 0 0-.115-.076-.229C6.175.991 6.175.915 6.137.61A3.192 3.192 0 016.06.23c0-.191.343-.344.571-.115zm3.393.381c-.115.381-.534.572-.534 1.03-.19.113-.381.152-.534.037-.266-.267.305-.686.42-.915.228.077.38-.38.648-.152zM4.117 1.64c-.115.038-.191.076-.343.038-.039-.23-.344-.305-.267-.534-.153-.076-.267-.229-.19-.42.228-.076.418-.266.57-.037.077.343.268.61.23.952zm8.652-.649c.038.23-.19.191-.19.344-.191.076-.534.343-.725.61-.114.152-.114.342-.267.38-.152.039-.304-.114-.419-.19.267-.61.763-1.22 1.601-1.144zM2.401 3.355c-.457.114-.914-.115-1.181-.42.076-.19.267-.304.571-.266.153.266.572.266.61.686zm12.236-.381c0 .19-.115.266-.305.343-.343.152-.458.533-.915.343-.076-.115-.114-.229-.038-.381 0-.039.495-.344.61-.382.267-.076.495-.076.648.077zm1.601 2.02c-.267.305-1.068.648-1.41.228.038-.152.114-.228.152-.343.457 0 1.067-.343 1.258.115zM5.413 4.917c.076.115.114.267.19.344-.038.114-.152.19-.229.266-.304 0-.533-.114-.457-.495.19 0 .267-.153.496-.115zm-3.965.648v.23c-.305.228-.99.037-1.296-.153 0-.115 0-.115-.038-.19.305-.458.953-.077 1.334.113zm2.974.648c0 .267-.039.458-.267.534-.534.839-.534 2.173.038 2.897.114.114.381.267.114.457-.114.077-.381.038-.495-.038-.42-.305-.572-1.296-.686-1.753a6.64 6.64 0 01.724-2.173.5.5 0 01.572.076zm12.311 1.106c0 .114-.114.152-.114.267-.381.038-.877.076-1.144-.153-.152-.686.991-.381 1.258-.114zm-15.59.991c.039.076 0 .152 0 .267C.877 8.805.115 9.3 0 8.615c.305-.229.686-.229 1.143-.305zM17 9.339c-.19.305-.991.343-1.296.153a.528.528 0 010-.344c.267-.228 1.182-.228 1.296.191zM1.41 11.321c0 .076.038.153.077.229-.305.228-.496.762-1.068.571-.19-.228.038-.38.19-.495.382 0 .42-.42.801-.305zm15.59.534c-.152.305-.495.266-.915.228-.152-.114-.229-.228-.19-.38.076-.268.305-.191.61-.153.19.076.457 0 .495.305zM1.944 12.922c.229.457-.61.953-.877.457.115-.343.534-.457.877-.457zm13.989 1.83c-.267.19-.686.038-.839-.191-.038-.114.115-.152 0-.19.267-.382.915-.115.839.38zM3.24 15.4c-.114.266-.457.343-.534.686-.228.114-.61.114-.648-.115-.114-.419.839-.876 1.182-.571zm11.664.876c-.115.42-.8.19-.839-.114 0-.457.839-.343.839.114zm-10.368.038c.152.458-.381.572-.61.839-.152-.076-.381-.076-.457-.19.076-.496.571-.572 1.067-.649zm9.148 1.525c-.076.381-1.22.381-1.105-.19.342-.306.838.038 1.105.19zm-8.157-.229c.076.077.114.19.114.343-.114.115-.267.191-.343.343-.114-.038-.381-.038-.533-.152 0-.152.076-.229.114-.343.267 0 .381-.229.648-.19z" fill="#1A1A1A"/><path fill-rule="evenodd" clip-rule="evenodd" d="M11.359 18.601c.762.077 1.105.61.99 1.449-.152.152-.342.229-.495.343.305.457-.114 1.105-.343 1.486.267.42-.038 1.182-.228 1.601-.115 0-.115-.038-.23-.038a.555.555 0 00-.228.343c-.305.19-.61.343-.953.496-.8.152-1.906.152-2.477-.343h-.23c-.19-.381-.647-.648-.838-1.03-.076-.152-.038-.266-.152-.419.038-.38-.153-.648-.114-.99-.191-.153-.153-.458-.305-.61.038-.267.038-.534.114-.84-.114-.152-.267-.266-.42-.38 0-.115-.037-.534-.037-.725.152-.266.457-.304.724-.419.076-.915-.229-1.639-.534-2.325a11.973 11.973 0 00-.495-.991c-.458-.839-1.22-1.41-1.678-2.173-.419-.533-.876-1.143-1.143-1.867-.038-.115-.114-.23-.152-.343-.23-.687-.305-1.41-.458-2.135.076-.762.038-1.563.343-2.249.038-.076.115-.114.153-.152.038-.115.038-.229.076-.343.076-.153.19-.267.305-.42.229-.38.381-.762.724-1.067.152-.152.42-.305.61-.495.534-.458 1.22-.839 2.096-1.068.877-.228 2.097-.419 3.05-.38.61 0 1.486.152 1.982.418 1.372.343 2.325 1.182 2.935 2.478.266.61.533 1.258.724 1.982.038.19.114.42.152.61.19 1.067.305 2.249.229 3.316-.038.267-.076.648-.152 1.03-.038.418-.077.838-.23 1.219 0 .038-.075.076-.075.152a3.227 3.227 0 01-.953 1.601c-.381.19-.839.534-1.182.877-.114.114-.152.305-.229.42-.038.075-.152.075-.19.152-.038.076-.038.152-.076.228-.153.23-.496.648-.572.915-.114.153-.114.458-.038.686zm.343-2.592c.114-.114.152-.266.229-.38.38-.458.99-.687 1.448-1.106.534-.496.8-1.753.915-2.592.228-1.753-.077-3.469-.42-4.765-.152-.571-.266-1.105-.533-1.524-.305-.534-.61-.991-1.106-1.41-.914-.801-2.4-1.144-3.926-1.144-.343.114-.838.114-1.22.152-.647.038-1.41.42-1.981.61-.23.076-.343.19-.534.305-.381.267-.762.534-.991.915-.153 0-.153.19-.305.19-.305.687-.8 1.258-.915 2.097-.228 1.296.115 2.706.534 3.812.19.19.305.457.42.724.647 1.029 1.486 1.906 2.21 2.859.305.686.724 1.41 1.029 2.172.114.267.229.686.229.991 0 .229-.153.534-.038.686h.152c.229-.533.19-1.143.19-1.791 0-1.753-.571-3.545-1.143-4.917-.457-.229-.915-.839-.724-1.41 0-.115-.076-.115-.038-.23.076-.152.19-.19.381-.228.267.114.076.457.152.724.039.19.191.267.23.42.304-.077.418.038.495.304.19 0 .343.077.419-.076-.343-.305-.839-.762-.724-1.372.038-.152.19-.229.114-.42.19-.342.572-.495 1.067-.495.42.19.839.458.839 1.03 0 .38-.229.724-.305 1.029.267.038.457-.039.724-.077-.152-.305-.19-.61-.228-.953.076-.114.038-.343.152-.533.038-.076.152-.153.229-.229.038-.076.076-.19.114-.267a.9.9 0 01.305-.343c.305-.228.572-.076.953.038.038.191.19.23.229.42.228-.153.38-.343.61-.534.114.038.304.038.495.038.42.267.8.648.61 1.182-.076.19-.153.38-.229.61a5.87 5.87 0 01-.229.495c.344.305.877-.19 1.068.153-.153.038-.153.19-.305.266-.153.077-.381.077-.572.153.152.076.114.305.114.534-.114.076-.266.114-.38.19-.42.42-.725.991-.916 1.64-.19.57-.38 1.371-.38 1.981 0 .61-.115 1.487.037 2.097.077.266.23.457-.038.61.19.038.305 0 .534.038-.19-1.258.457-2.02.953-2.669zM9.567 9.034c-.495.153-.724 1.144-.38 1.601.38-.305.914-1.182.38-1.6zm1.83.953c.038-.114.114-.305.114-.42-.038-.304-.381-.457-.61-.228-.228.229-.343 1.143.115 1.296.152-.229.305-.457.38-.648zm-4.422-.381c-.305.42 0 1.067.343 1.258.42-.343.496-1.449-.343-1.258zm2.63 1.448c.153.305.915.343 1.106 0-.267-.114-.343-.457-.572-.61-.229.191-.381.42-.534.61zm1.601.343c-.343.267-.724.534-1.334.42-.305-.039-.61-.382-.838-.382-.191 0-.42.115-.648.153a3.376 3.376 0 01-.877 0c-.19.19-.457.267-.724.343.038.457.343.915.457 1.41.42 1.601.648 3.43.42 5.108.686.076 1.372.076 2.096.076-.458-2.44-.115-5.146 1.296-6.785.19-.076.381-.152.495-.343-.19-.076-.305-.038-.343 0zM7.242 20.05c.534.038 1.182.076 1.868.038.572 0 1.181.114 1.83.038.724-.076 1.143-.686.343-.877-.572-.114-1.258 0-1.868-.076-.076 0-.153-.076-.229-.076-.305-.038-.686 0-.953 0-.762 0-1.448.038-2.096.114.076.496.61.763 1.105.839zm1.067 1.563c1.068.076 1.944.19 2.669-.039.152-.114.152-.343.343-.419-.038-.229.266-.42.19-.534-.19-.038-.19.077-.343.077-1.6 0-3.392.114-4.764-.229-.077.991 1.029 1.067 1.905 1.144zm-.99.571c.076 0 .152 0 .152-.076-.038-.038-.076-.038-.153-.038v.114zm1.181.496c0-.19.038-.458-.152-.496.038.115.076.42.152.496zm.572-.19c.19-.039.305-.077.495-.039 0-.114 0-.152.038-.19-.152.038-.686-.23-.533.228zm.876 1.143c0-.076-.076-.153-.038-.343-.038 0-.076 0-.076-.038-.114.152.038.305.114.38zm-.762.19c.038 0 .076.038.114.038.039-.076-.038-.228-.076-.266-.038 0-.038.114-.038.228z" fill="#1A1A1A"/></svg>
